src/assets/outline/Receipt.svg

<?xml version="1.0" encoding="UTF-8"?>
<svg width="24" height="24" viewBox="0 0 24 24" xmlns="http://www.w3.org/2000/svg">
 <path d="m12 22.75c-0.78 0-1.54-0.4-2.06-1.1l-1.01-1.35c-0.21-0.28-0.49-0.44-0.79-0.46-0.3-0.01-0.6 0.12-0.84 0.37l-0.57-0.51 0.55 0.51c-1.44 1.54-2.55 1.42-3.08 1.21-0.54-0.21-1.45-0.9-1.45-3.12v-11.26c0-4.44 1.28-5.79 5.47-5.79h7.56c4.19 0 5.47 1.35 5.47 5.79v11.26c0 2.21-0.91 2.9-1.45 3.12-0.53 0.21-1.63 0.33-3.08-1.21-0.24-0.26-0.53-0.4-0.85-0.37-0.3 0.02-0.59 0.18-0.8 0.46l-1.01 1.35c-0.52 0.7-1.28 1.1-2.06 1.1zm-3.92-4.42h0.13c0.74 0.04 1.44 0.43 1.91 1.06l1.01 1.35c0.49 0.65 1.24 0.65 1.73 0l1.01-1.35c0.48-0.63 1.17-1.02 1.92-1.06 0.74-0.04 1.48 0.27 2.02 0.85 0.76 0.81 1.26 0.91 1.43 0.84 0.24-0.1 0.5-0.68 0.5-1.72v-11.26c0-3.61-0.63-4.29-3.97-4.29h-7.55c-3.34 0-3.97 0.68-3.97 4.29v11.26c0 1.05 0.26 1.63 0.5 1.72 0.17 0.07 0.67-0.03 1.43-0.84 0.54-0.55 1.21-0.85 1.9-0.85z"/>
 <path d="m16 7.75h-8c-0.41 0-0.75-0.34-0.75-0.75s0.34-0.75 0.75-0.75h8c0.41 0 0.75 0.34 0.75 0.75s-0.34 0.75-0.75 0.75z"/>
 <path d="m15 11.75h-6c-0.41 0-0.75-0.34-0.75-0.75s0.34-0.75 0.75-0.75h6c0.41 0 0.75 0.34 0.75 0.75s-0.34 0.75-0.75 0.75z"/>
</svg>

<svg width="24" height="24" viewBox="0 0 24 24"  xmlns="http://www.w3.org/2000/svg">
<path d="M12 22.75C11.22 22.75 10.46 22.35 9.94 21.65L8.93 20.3C8.72 20.02 8.44 19.86 8.14 19.84C7.84 19.83 7.54 19.96 7.3 20.21L6.73 19.7L7.28 20.21C5.84 21.75 4.73 21.63 4.2 21.42C3.66 21.21 2.75 20.52 2.75 18.3V7.04C2.75 2.6 4.03 1.25 8.22 1.25H15.78C19.97 1.25 21.25 2.6 21.25 7.04V18.3C21.25 20.51 20.34 21.2 19.8 21.42C19.27 21.63 18.17 21.75 16.72 20.21C16.48 19.95 16.19 19.81 15.87 19.84C15.57 19.86 15.28 20.02 15.07 20.3L14.06 21.65C13.54 22.35 12.78 22.75 12 22.75ZM8.08 18.33C8.12 18.33 8.17 18.33 8.21 18.33C8.95 18.37 9.65 18.76 10.12 19.39L11.13 20.74C11.62 21.39 12.37 21.39 12.86 20.74L13.87 19.39C14.35 18.76 15.04 18.37 15.79 18.33C16.53 18.29 17.27 18.6 17.81 19.18C18.57 19.99 19.07 20.09 19.24 20.02C19.48 19.92 19.74 19.34 19.74 18.3V7.04C19.74 3.43 19.11 2.75 15.77 2.75H8.22C4.88 2.75 4.25 3.43 4.25 7.04V18.3C4.25 19.35 4.51 19.93 4.75 20.02C4.92 20.09 5.42 19.99 6.18 19.18C6.72 18.63 7.39 18.33 8.08 18.33Z" />
<path d="M16 7.75H8C7.59 7.75 7.25 7.41 7.25 7C7.25 6.59 7.59 6.25 8 6.25H16C16.41 6.25 16.75 6.59 16.75 7C16.75 7.41 16.41 7.75 16 7.75Z" />
<path d="M15 11.75H9C8.59 11.75 8.25 11.41 8.25 11C8.25 10.59 8.59 10.25 9 10.25H15C15.41 10.25 15.75 10.59 15.75 11C15.75 11.41 15.41 11.75 15 11.75Z" />
</svg>
